public/images/icon-unlike.svg

<svg xmlns="http://www.w3.org/2000/svg" width="24" height="24" fill="none"><path stroke="#38a169" stroke-linecap="round" stroke-linejoin="round" stroke-width="2" d="M14 10h4.764a1.9995 1.9995 0 0 1 1.7011.9484 1.9991 1.9991 0 0 1 .0879 1.9456l-3.5 7A1.9994 1.9994 0 0 1 15.263 21h-4.017c-.163 0-.326-.02-.485-.06L7 20m7-10V5a1.9999 1.9999 0 0 0-2-2h-.095c-.5 0-.905.405-.905.905 0 .714-.211 1.412-.608 2.006L7 11v9m7-10h-2M7 20H5a1.9999 1.9999 0 0 1-2-2v-6a2 2 0 0 1 2-2h2.5"/></svg>

<svg width="24" height="24" viewBox="0 0 24 24" fill="none" xmlns="http://www.w3.org/2000/svg">
<path d="M14 10H18.764C19.1049 10 19.4401 10.0871 19.7378 10.2531C20.0355 10.4191 20.2859 10.6584 20.4651 10.9484C20.6444 11.2383 20.7465 11.5692 20.7619 11.9098C20.7773 12.2503 20.7054 12.5891 20.553 12.894L17.053 19.894C16.8869 20.2265 16.6314 20.5061 16.3152 20.7014C15.999 20.8968 15.6347 21.0002 15.263 21H11.246C11.083 21 10.92 20.98 10.761 20.94L7 20M14 10V5C14 4.46957 13.7893 3.96086 13.4142 3.58579C13.0391 3.21071 12.5304 3 12 3H11.905C11.405 3 11 3.405 11 3.905C11 4.619 10.789 5.317 10.392 5.911L7 11V20M14 10H12M7 20H5C4.46957 20 3.96086 19.7893 3.58579 19.4142C3.21071 19.0391 3 18.5304 3 18V12C3 11.4696 3.21071 10.9609 3.58579 10.5858C3.96086 10.2107 4.46957 10 5 10H7.5" stroke="#38a169" stroke-width="2" stroke-linecap="round" stroke-linejoin="round"/>
</svg>
